CommonLib.Web/CommonLib.Web/wwwroot/icons/duotone/ankh.svg

<svg xmlns="http://www.w3.org/2000/svg" viewBox="0 0 320 512"><defs><style>.fa-secondary{opacity:.4}</style></defs><path d="M296 256H24a24 24 0 0 0-24 24v32a24 24 0 0 0 24 24h272a24 24 0 0 0 24-24v-32a24 24 0 0 0-24-24z" class="fa-secondary"/><path d="M120 488a24 24 0 0 0 24 24h32a24 24 0 0 0 24-24V336h-80zM160 0C89.31 0 32 55.63 32 144c0 37.65 15.54 78 36.62 112h182.76C272.46 222 288 181.65 288 144 288 55.63 230.69 0 160 0zm0 244.87c-20.86-22.72-48-66.21-48-100.87 0-39.48 18.39-64 48-64s48 24.52 48 64c0 34.66-27.14 78.14-48 100.87z" class="fa-primary"/></svg>

<svg xmlns="http://www.w3.org/2000/svg" viewBox="0 0 320 512"><!--! Font Awesome Pro 6.2.0 by @fontawesome - https://fontawesome.com License - https://fontawesome.com/license (Commercial License) Copyright 2022 Fonticons, Inc. --><defs><style>.fa-secondary{opacity:.4}</style></defs><path class="fa-primary" d="M120 488C120 501.3 130.8 512 144 512h32c13.25 0 24-10.75 24-24V336h-80V488zM160 0C89.25 0 32 55.63 32 144C32 181.6 47.5 222 68.63 256h182.8C272.5 222 288 181.6 288 144C288 55.63 230.8 0 160 0zM160 244.9C139.1 222.1 112 178.6 112 144c0-39.5 18.38-64 48-64s48 24.5 48 64C208 178.6 180.9 222.1 160 244.9z"/><path class="fa-secondary" d="M296 256h-272C10.75 256 0 266.8 0 280v32c0 13.25 10.75 24 24 24h272c13.25 0 24-10.75 24-24v-32C320 266.8 309.2 256 296 256z"/></svg>
